X:1
T:Title
%%score 1 2
L:1/8
Q:1/4=80
M:4/4
K:C
V:1 treble nm="Strings 1, Soprano"
V:2 bass nm="Strings 1, Bass"
V:1
 [EG]3 [EG] [CE]C[CE][EG] | [FA]4 [EG]4 | [Ec]3 [Gc] [FB][FA][FB][FG] | [Ec]6 z2 | %4
w: 1.~By~ the~ prom ise~ of~ the~|Fa ther,~|Comes~ the~ Spir it~ from~ on~|high,~|
 [EG]3 [EG] [CE]C[CE][EG] | [FA]4 [EG]4 | [Ec]3 [Ec] [FB][FA][FB][Fd] | [Ec]6 z2 | %8
w: In to~ hearts~ re deemed~ from~|e vil,~|By~ His~ pow'r~ to~ sanc ti|fy.~|
 [Gd]3 [Gd] [GB]G[Gc][Gd] | [Ge]4 [Ec]4 | [Fc]3 [Fc] [Fd][Fc][GB][FA] | [EG]6 z2 | %12
w: ||||
 [EG]3 [EG] [CE]C[CE][EG] | [FA]4 [EG]4 | [Ec]3 [Ec] [FB][FA][FB][Fd] | [Ec]6 z2 |] %16
w: ||||
V:2
 [C,C]3 [C,C] [C,G,][C,E,][C,G,][C,C] | [C,C]4 [C,C]4 | [C,G,]3 [E,C] [G,D][G,C][G,D][G,B,] | %3
 [C,C]6 z2 | [C,C]3 [C,C] [C,G,][C,E,][C,G,][C,C] | [F,C]4 [C,C]4 | %6
 [C,C]3 [C,C] [G,D][G,D][G,D][G,B,] | [C,C]6 z2 | [G,B,]3 [G,B,] [G,D][G,B,][E,C][G,B,] | %9
 C4 [C,C]4 | [F,A,]3 [F,A,] [F,A,][F,A,][F,C][F,C] | [C,C]6 z2 | %12
 [C,C]3 [C,C] [C,G,][C,E,][C,G,][C,C] | [F,C]4 [C,C]4 | [C,C]3 [C,C] [G,D][G,D][G,D][G,B,] | %15
 [C,C]6 z2 |] %16

